X: 11070
T: Duchess Of Yell, The
R: three-two
M: 3/2
K: Dmajor
|:A3A GFD2 D4|A3A GAAG ABde|~edef A3A GFGA|GFD2 D3A, B,DDF|
EDEF GFED EFD2:|
GFED ADDA AAD2|EDEA GFED EFDA,|B,DEF DEFA GFED|ADDD BDDD ABde|
fdBe dAAF GABc|deBA GFED ADDA|AAD2 EDEA GFED|EFDA, B,DEF DEFA|
GFED ADDD BDDD|ABde fdBe dAAF|M:2/4
GABc defe||

